X:1
T:Balletto della Nonna
T:Balletto della Nonna
T:for Mandolin Solo, v0.1.0
T:Raffaele Calace, Op. 182
T:CC-BY-SA 2020 Zachary Bian
T:CC-BY-SA 2020 Zachary Bian
C:Raffaele Calace, Op. 182
Z:CC-BY-SA 2020 Zachary Bian
%%score ( 1 2 )
L:1/8
M:4/4
K:C
V:1 treble nm="Mandolin" snm="Mdn."
V:2 treble 
V:1
 (g2 |:S [Gce]2) z2 z2 (g2 | [DAf]2) z2 z2 (a2 | [G,Dfb]2) z2 z2 b2 | %4
 .d'/.c'/.b/.c'/ .d'/.c'/.g/.e/ .c z (g2 | [Gce]2) z2 z2 (g2 | [DA^f]2) z2 z2 ([Dca]2 | %7
 [G,DBg]/)b/b/g/ [DA^f]/a/a/f/ [G,DBg]/b/b/g/ [DAf]/a/a/f/ | %8
 [G,DBg]/^f/=f/e/"^ad lib." d/c/B/A/ (G/A/B/c/ d/e/f/g/) | [Gcg]2 z2 z2 (g2 | [DAf]2) z2 z2 (a2 | %11
 [G,Dfb]2) z2 z2 b2 | .d'/.c'/.b/.c'/ .d'/.c'/.g/.e/ .c z (g2 | [Gce]2) z2 z2 (g2 | [DAf]2) z2 z4 | %15
 .e/.a/.e/.c/ .G/.E/.C/.A,/ G,2 [DBg]2 |1 [Ec]2 [CGec']2 C2 g2 :|2 [Ec]2 [CGec']2 C2 z2 |: %18
 (c2 A2- A).A/.B/ cA | (B2 F2- F).F/.A/ [Fd][DAf] | ([^G,EBe]2 b2- (b/)^g/e/d/ B/^G/F/E/) | %21
 (B2 A2- A/)^D/E/F/ E/=D/C/B,/ | (c2 A2- A).A/.B/ cA | (d2 f2- f)d/e/ f/a/f/d/ | %24
 e/e'/d'/c'/ b/a/g/f/ e/e/d/c/ B/A/G/F/ |1 [A,E][CEA][Ac][ce] [EB^g][db][A,Eca] z :|2 %26
 [A,E][CEA][Ac][ce] [EB^g][db][A,Eca]g!D.S.! |:[K:F]"^Trio" (a8- | a2 g2 d2 e2 | f4) e4 | %30
 (e2 d2 A2 B2) | (c6 f2) | (e2 d2 c2 B2 | A4- A)GDF | _E2 Bc e"^rall."f^fg |"^a tempo" (a8- | %36
 a2 g2 d2 e2 | f4) e4 | (e2 d2 A2 B2) | %39
 !arpeggio![A,Fc]2 !arpeggio![B,Fd]2 !arpeggio![DBf]2 !arpeggio![Fdb]2 | %40
 [Fca]2 [Af]2 [Fc]2 !arpeggio![CFc]2 | E8 | F4 [Af]2 z2 :|2 F4 [Af]2 (g2 || %44
[K:C] [Gce]2) z2 z2 (g2 | [DAf]2) z2 z2 (a2 | [G,Dfb]2) z2 z2 b2 | %47
 .d'/.c'/.b/.c'/ .d'/.c'/.g/.e/ .c z (g2 | [Gce]2) z2 z2 (g2 | [DA^f]2) z2 z2 ([Dca]2 | %50
 [G,DBg]/)b/b/g/ [DA^f]/a/a/f/ [G,DBg]/b/b/g/ [DAf]/a/a/f/ | %51
 [G,DBg]/^f/=f/e/"^ad lib." d/c/B/A/ (G/A/B/c/ d/e/f/g/) | [Gcg]2 z2 z2 (g2 | [DAf]2) z2 z2 (a2 | %54
 [G,Dfb]2) z2 z2 b2 | .d'/.c'/.b/.c'/ .d'/.c'/.g/.e/ .c z (g2 | [Gce]2) z2 z2 (g2 | [DAf]2) z2 z4 | %58
 .e/.a/.e/.c/ .G/.E/.C/.A,/ G,2 [DBg]2 | [Ec]2 [CGec']2 C2 z2 | (c2 A2- A).A/.B/ cA | %61
 (B2 F2- F).F/.A/ [Fd][DAf] | ([^G,EBe]2 b2- (b/)^g/e/d/ B/^G/F/E/) | %63
 (B2 A2- A/)^D/E/F/ E/=D/C/B,/ | (c2 A2- A).A/.B/ cA | (d2 f2- f)d/e/ f/a/f/d/ | %66
 e/e'/d'/c'/ b/a/g/f/ e/e/d/c/ B/A/G/F/ | [A,E][CEA][Ac][ce] [EB^g][db][A,Eca] z |] %68
V:2
 x2 |: z2 .C.D .E z z2 | z2 .D.E .F z z2 | z2 .D.E .F z z2 | x8 | z2 .C.D .E z z2 | %6
 z2 .A,.B, .C z z2 | x8 | x8 | z2 .C.D .E z z2 | z2 .D.E .F z z2 | z2 .D.E .F z z2 | x8 | %13
 z2 .C.D .E z z2 | z2 .D.E .F.A.d.f | x8 |1 x8 :|2 x8 |: [A,E] z [CE]2 z2 z2 | D z D2 z2 z2 | x8 | %21
 [A,E] z [CE] z z2 z2 | [A,E] z [CE] z z2 z2 | [A,F] z [DA]2 z2 z2 | x8 |1 x8 :|2 x8 |: %27
[K:F] !arpeggio![Fc]2 z2 !arpeggio![Ec]2 z2 | !arpeggio![DB]2 z2 z4 | %29
 !arpeggio![GB]2 z2 !arpeggio![GB]2 z2 | !arpeggio![FA]2 z2 z4 | A z G z F z A z | %32
 G z F z E z D z | !arpeggio![CF] z z2 [=B,D]2 z2 | _B,2 z2 z4 | %35
 !arpeggio![Fc]2 z2 !arpeggio![Ec]2 z2 | !arpeggio![DB]2 z2 z4 | %37
 !arpeggio![GB]2 z2 !arpeggio![GB]2 z2 | !arpeggio![FA]2 z2 z4 | x8 | x8 | %41
 B,2 .C2"^rit." ._D2 .C.B, | A,2 z2 z4 :|2 A,2 z2 z2 z2 ||[K:C] z2 .C.D .E z z2 | z2 .D.E .F z z2 | %46
 z2 .D.E .F z z2 | x8 | z2 .C.D .E z z2 | z2 .A,.B, .C z z2 | x8 | x8 | z2 .C.D .E z z2 | %53
 z2 .D.E .F z z2 | z2 .D.E .F z z2 | x8 | z2 .C.D .E z z2 | z2 .D.E .F.A.d.f | x8 | x8 | %60
 [A,E] z [CE]2 z2 z2 | D z D2 z2 z2 | x8 | [A,E] z [CE] z z2 z2 | [A,E] z [CE] z z2 z2 | %65
 [A,F] z [DA]2 z2 z2 | x8 | x8 |] %68

